icons/desktop/12/svg/heart-12.svg

<svg width="12" height="12" viewBox="0 0 12 12" fill="none" xmlns="http://www.w3.org/2000/svg">
<path d="M3.36645 5.65148C3.63012 5.4291 4.02468 5.46236 4.24731 5.7257C4.34699 5.84389 4.43139 5.93875 4.48949 6.00304C4.51838 6.035 4.541 6.06025 4.5559 6.07628C4.56304 6.08396 4.56906 6.09022 4.5725 6.09386C4.57386 6.09531 4.57484 6.09701 4.57543 6.09777L4.57641 6.09874C4.74271 6.27375 4.92779 6.46075 5.13207 6.65734C5.26361 6.78408 5.40361 6.91499 5.55297 7.04894C5.80988 7.2794 5.83125 7.67479 5.60082 7.93175C5.3703 8.1882 4.9748 8.20989 4.71801 7.9796C4.55788 7.83599 4.40792 7.69556 4.26586 7.5587L3.95238 7.25011C3.85354 7.15036 3.76075 7.05237 3.67211 6.95909L3.67113 6.96007L3.6682 6.95714C3.66673 6.95552 3.66474 6.95285 3.66234 6.9503C3.6571 6.94476 3.64903 6.9367 3.63988 6.92687C3.62128 6.90686 3.59457 6.87821 3.56176 6.84191C3.49544 6.76852 3.40217 6.66269 3.29223 6.53234C3.07007 6.26866 3.10317 5.87403 3.36645 5.65148Z" fill="black"/>
<path fill-rule="evenodd" clip-rule="evenodd" d="M3.51977 1.00792C4.4707 1.06692 5.35132 1.56477 5.99731 2.39366C6.62422 1.59093 7.47015 1.10651 8.38793 1.02745C9.4239 0.936456 10.4359 1.38419 11.1799 2.24913C11.7729 2.93713 12.0604 3.80626 11.9924 4.70226C11.9924 4.71818 11.9925 4.7332 11.9905 4.74913C11.8704 6.33112 10.1421 8.24735 9.79809 8.61534C9.59714 8.82629 9.377 9.04841 9.13207 9.28234C8.57816 9.80924 7.95842 10.3144 7.23656 10.8253L7.22191 10.8351C6.85598 11.095 6.42716 11.2247 5.99926 11.2247L5.99731 11.2237C5.57135 11.2237 5.14641 11.0959 4.78344 10.84C4.18844 10.422 3.68714 10.0278 3.25414 9.6378C2.84827 9.27191 2.4992 8.92718 2.20727 8.61925C1.99527 8.39625 0.133055 6.39214 0.0100008 4.74816C-0.0409992 4.09016 0.119907 3.53281 0.138907 3.47081C0.261885 3.06895 0.455169 2.6982 0.716056 2.3673C1.44396 1.43842 2.44892 0.935079 3.51977 1.00792ZM3.33129 2.25109C2.72639 2.25109 2.14942 2.56299 1.69945 3.1378C1.53445 3.3468 1.4122 3.58109 1.3352 3.83409C1.33425 3.83738 1.22324 4.22526 1.25609 4.65343C1.33337 5.67444 2.62357 7.24098 3.11352 7.75792C3.38549 8.04489 3.71112 8.36715 4.09106 8.70909C4.48706 9.06509 4.94816 9.42847 5.50316 9.81847C5.80013 10.0273 6.19647 10.0274 6.4934 9.81847L6.50902 9.80577C7.18292 9.32884 7.75787 8.86199 8.26781 8.37706C8.49581 8.15906 8.70105 7.95185 8.88305 7.76085C9.48206 7.12283 10.6216 5.68195 10.7366 4.71398C10.7366 4.69507 10.7365 4.67721 10.7395 4.65831C10.7975 4.07833 10.6157 3.51253 10.2307 3.06554C9.74575 2.50159 9.13433 2.21762 8.4934 2.27355C7.82045 2.33154 7.19458 2.76319 6.77758 3.45909C6.6016 3.75306 6.31524 3.91606 5.99828 3.9171H5.99633C5.68038 3.9171 5.39276 3.75541 5.22875 3.48448C4.78685 2.74765 4.13547 2.30014 3.44164 2.25597C3.40568 2.25397 3.36825 2.25304 3.33129 2.25304V2.25109Z" fill="black"/>
</svg>

<!-- This Source Code Form is subject to the terms of the Mozilla Public
   - License, v. 2.0. If a copy of the MPL was not distributed with this
   - file, You can obtain one at http://mozilla.org/MPL/2.0/. -->
<svg xmlns="http://www.w3.org/2000/svg" width="12" height="12" fill="context-fill" fill-opacity="context-fill-opacity" viewBox="0 0 12 12">
    <path d="M3.366 5.651a.626.626 0 0 1 .881.075c.1.118.184.213.242.277l.067.073.016.018.003.004h.001a18 18 0 0 0 .977.95.625.625 0 0 1-.835.932q-.24-.216-.452-.421l-.314-.309q-.147-.151-.28-.29l-.004-.003-.006-.007-.022-.023-.078-.085c-.067-.073-.16-.18-.27-.31a.626.626 0 0 1 .074-.88" />
    <path fill-rule="evenodd" d="M3.52 1.008c.95.059 1.831.557 2.477 1.386.627-.803 1.473-1.287 2.39-1.367 1.037-.09 2.049.357 2.793 1.222.593.688.88 1.557.812 2.453q0 .023-.002.047c-.12 1.582-1.848 3.498-2.192 3.866q-.3.316-.666.667a17 17 0 0 1-1.895 1.543l-.015.01a2.1 2.1 0 0 1-1.223.39l-.002-.001c-.426 0-.85-.128-1.214-.384a16 16 0 0 1-2.576-2.22C1.995 8.395.133 6.391.01 4.747a3.8 3.8 0 0 1 .129-1.277c.123-.402.316-.773.577-1.104.728-.929 1.733-1.432 2.804-1.36M3.33 2.25c-.605 0-1.182.312-1.632.887a2.1 2.1 0 0 0-.364.696 2.6 2.6 0 0 0-.079.82c.077 1.02 1.368 2.587 1.858 3.104a14.993 14.993 0 0 0 2.39 2.06.86.86 0 0 0 .99 0l.015-.012a16 16 0 0 0 1.759-1.429q.342-.328.615-.616c.6-.638 1.739-2.08 1.854-3.047q0-.028.002-.056a2.1 2.1 0 0 0-.508-1.592c-.485-.564-1.097-.848-1.738-.792-.673.058-1.298.49-1.715 1.185a.9.9 0 0 1-.78.458h-.002a.89.89 0 0 1-.767-.433C4.787 2.748 4.135 2.3 3.442 2.256l-.11-.003z" clip-rule="evenodd" />
</svg>
